neru-light-classic/22x22/panel/btsync-gui-paused.svg

<?xml version="1.0" encoding="UTF-8" standalone="no"?>
<svg
   xmlns:dc="http://purl.org/dc/elements/1.1/"
   xmlns:cc="http://creativecommons.org/ns#"
   xmlns:rdf="http://www.w3.org/1999/02/22-rdf-syntax-ns#"
   xmlns:svg="http://www.w3.org/2000/svg"
   xmlns="http://www.w3.org/2000/svg"
   xmlns:sodipodi="http://sodipodi.sourceforge.net/DTD/sodipodi-0.dtd"
   xmlns:inkscape="http://www.inkscape.org/namespaces/inkscape"
   width="22"
   height="22"
   version="1.1"
   id="svg9"
   sodipodi:docname="btsync-gui-paused.svg"
   inkscape:version="0.92.4 5da689c313, 2019-01-14">
  <metadata
     id="metadata13">
    <rdf:RDF>
      <cc:Work
         rdf:about="">
        <dc:format>image/svg+xml</dc:format>
        <dc:type
           rdf:resource="http://purl.org/dc/dcmitype/StillImage" />
      </cc:Work>
    </rdf:RDF>
  </metadata>
  <sodipodi:namedview
     pagecolor="#ffffff"
     bordercolor="#666666"
     borderopacity="1"
     objecttolerance="10"
     gridtolerance="10"
     guidetolerance="10"
     inkscape:pageopacity="0"
     inkscape:pageshadow="2"
     inkscape:window-width="640"
     inkscape:window-height="515"
     id="namedview11"
     showgrid="false"
     inkscape:zoom="10.727273"
     inkscape:cx="11"
     inkscape:cy="11"
     inkscape:window-x="0"
     inkscape:window-y="28"
     inkscape:window-maximized="0"
     inkscape:current-layer="g7" />
  <defs
     id="defs3">
    <style
       id="current-color-scheme"
       type="text/css">
   .ColorScheme-Text { color:#1e333d; } .ColorScheme-Highlight { color:#3fb7ff; }
  </style>
  </defs>
  <g
     id="g7">
    <path
       style="color:#1e333d;fill:#1e333d;fill-opacity:1"
       class="ColorScheme-Text"
       d="m 11,3 c -4.4180497,0 -8,3.5819503 -8,8 0,4.41805 3.5819503,8 8,8 4.41805,0 8,-3.58195 8,-8 C 19,6.5819503 15.41805,3 11,3 Z M 7.25,5 h 3 C 10.537546,5.0008689 10.810795,5.1252673 11,5.3417969 11.189205,5.1252673 11.462454,5.0008689 11.75,5 h 3 c 0.552291,0 1,0.4477091 1,1 V 7.9140625 C 15.951002,8.1960657 16.135248,8.4924964 16.28125,8.8125 L 17.5,8.34375 l -1,3.46875 -0.75,-0.417969 v 1.408203 l 0.59375,0.228516 C 16.186748,13.407254 15.980003,13.749215 15.75,14.074219 V 16 c 0,0.552291 -0.447709,1 -1,1 h -3 C 11.46277,16.999636 11.189572,16.875943 11,16.660156 10.810428,16.875943 10.53723,16.999636 10.25,17 h -3 c -0.5522909,0 -1,-0.447709 -1,-1 V 14.060547 C 6.0479977,13.775544 5.8627516,13.478254 5.71875,13.15625 L 4.5,13.595703 l 1,-3.375 0.75,0.402344 V 9.2285156 L 5.65625,9 C 5.8092517,8.6179957 6.0179974,8.2704568 6.25,7.9394531 V 6 c 0,-0.5522909 0.4477091,-1 1,-1 z M 8,6 C 7.446,6 7,6.446 7,7 v 8 c 0,0.554 0.446,1 1,1 h 1 c 0.554,0 1,-0.446 1,-1 V 7 C 10,6.446 9.554,6 9,6 Z m 5,0 c -0.554,0 -1,0.446 -1,1 v 8 c 0,0.554 0.446,1 1,1 h 1 c 0.554,0 1,-0.446 1,-1 V 7 C 15,6.446 14.554,6 14,6 Z"
       id="path5"
       inkscape:connector-curvature="0" />
  </g>
</svg>

<svg xmlns="http://www.w3.org/2000/svg" width="22" height="22" version="1.1" id="svg9"><defs id="defs3"><style id="current-color-scheme" type="text/css"></style></defs><g id="g7"><path d="M11 3a8 8 0 1 0 0 16 8 8 0 0 0 0-16zM7.25 5h3a1 1 0 0 1 .75.342A1 1 0 0 1 11.75 5h3a1 1 0 0 1 1 1v1.914c.201.282.385.578.531.899l1.219-.47-1 3.47-.75-.418v1.408l.594.228a5.43 5.43 0 0 1-.594 1.043V16a1 1 0 0 1-1 1h-3a1 1 0 0 1-.75-.34 1 1 0 0 1-.75.34h-3a1 1 0 0 1-1-1v-1.94a5.346 5.346 0 0 1-.531-.904l-1.219.44 1-3.375.75.402V9.229L5.656 9c.153-.382.362-.73.594-1.06V6a1 1 0 0 1 1-1zM8 6c-.554 0-1 .446-1 1v8c0 .554.446 1 1 1h1c.554 0 1-.446 1-1V7c0-.554-.446-1-1-1zm5 0c-.554 0-1 .446-1 1v8c0 .554.446 1 1 1h1c.554 0 1-.446 1-1V7c0-.554-.446-1-1-1z" id="path5" color="#1e333d" fill="#1e333d" fill-opacity="1"/></g></svg>
